pages/images/large/three-betas.svg

<svg xmlns="http://www.w3.org/2000/svg" xmlns:xlink="http://www.w3.org/1999/xlink" width="3072" height="1536" viewBox="0 0 3072 1536"><g fill-rule="evenodd"><path d="M2484 276h12v576h-99.56C2364 828 2322 804 2292 786c-66-42-126-66-126-114s60-72 126-114c156-90 192-132 192-282zM576 852H246c0-42 36-60 114-108 156-90 204-126 204-288h12zm960 0h-202.307C1289.193 828 1206 785 1206 737c0-42 36-60 114-108 156-90 204-126 204-288h12z" fill="silver"/><path d="M564 1248c0-174-60-204-192-282-66-42-126-66-126-114h330v396zm960.012-114c0-174-60-204-192-282H1536l.012 282z" fill="#efefef" fill-opacity=".937"/><path d="M2484 1068c0-168-67.942-199.658-87.56-216H2496v216z" fill="#efefef"/></g><use xlink:href="#a" transform="translate(-1920)" width="100%" height="100%"/><use xlink:href="#b" id="a" transform="translate(960)" width="100%" height="100%"/><use xlink:href="#c" transform="translate(960)" width="100%" height="100%"/><use xlink:href="#d" id="c" transform="translate(960)" width="100%" height="100%"/><use xlink:href="#e" transform="translate(1920)" width="100%" height="100%"/><use xlink:href="#e" transform="translate(960)" width="100%" height="100%"/><path d="M588 1248c0-174 60-204 192-282 66-42 126-66 126-114s-60-72-126-114c-126-78-192-102-192-282" id="g" fill="none" fill-rule="evenodd" stroke="#000" stroke-width="3"/><path id="f" d="M564 1248c0-174-60-204-192-282-66-42-126-66-126-114s60-72 126-114c126-78 192-102 192-282" fill="none" fill-rule="evenodd" stroke="#000" stroke-width="3"/><path d="M332.5 852H576" fill="none" stroke="#000" stroke-width="2" stroke-dasharray="8, 8"/><path d="M222 852h354" fill="none" stroke="#000" stroke-width="2"/><path d="M984 1032H168" id="d" fill="none" fill-rule="evenodd" stroke="#000" stroke-width="4"/><path id="b" d="M1890 852h-354" fill="none" fill-rule="evenodd" stroke="#000" stroke-width="2"/><path d="M1333.693 852H1536" fill="none" stroke="#000" stroke-width="2" stroke-dasharray="8, 8"/><path d="M1182 738h354" fill="none" stroke="#000" stroke-width="2"/><path d="M2396.44 852H2496" fill="none" stroke="#000" stroke-width="2" stroke-dasharray="8, 8"/><path d="M2142 672h354" fill="none" stroke="#000" stroke-width="2"/><path d="M576 1320V264" id="e" fill="none" fill-rule="evenodd" stroke="#000" stroke-width="4"/><use xlink:href="#f" transform="translate(960 -114)" width="100%" height="100%"/><use xlink:href="#f" transform="translate(1920 -180)" width="100%" height="100%"/><use xlink:href="#g" id="h" transform="translate(960)" width="100%" height="100%"/><use xlink:href="#h" transform="translate(960)" width="100%" height="100%"/><g font-size="70" font-family="sans-serif" letter-spacing="0" word-spacing="0"><text style="line-height:125%;-inkscape-font-specification:'sans-serif, Normal';text-align:start" x="188.387" y="1110.99"><tspan x="188.387" y="1110.99">β = 0.50</tspan></text><text y="1110.99" x="1146.113" style="line-height:125%;-inkscape-font-specification:'sans-serif, Normal';text-align:start"><tspan x="1146.113" y="1110.99">β = 0.16</tspan></text><text style="line-height:125%;-inkscape-font-specification:'sans-serif, Normal';text-align:start" x="2109.901" y="1109.34"><tspan x="2109.901" y="1109.34">β = 0.05</tspan></text><text y="531.59" x="2109.27" style="line-height:125%;-inkscape-font-specification:'sans-serif, Normal';text-align:start"><tspan x="2109.27" y="531.59">95%</tspan></text><text style="line-height:125%;-inkscape-font-specification:'sans-serif, Normal';text-align:start" x="1149.13" y="531.59"><tspan x="1149.13" y="531.59">84%</tspan></text><text y="526.46" x="189.27" style="line-height:125%;-inkscape-font-specification:'sans-serif, Normal';text-align:start"><tspan x="189.27" y="526.46">50%</tspan></text></g></svg>

<?xml version="1.0" encoding="UTF-8" standalone="no"?>
<!-- Created with Inkscape (http://www.inkscape.org/) -->

<svg
   xmlns:dc="http://purl.org/dc/elements/1.1/"
   xmlns:cc="http://creativecommons.org/ns#"
   xmlns:rdf="http://www.w3.org/1999/02/22-rdf-syntax-ns#"
   xmlns:svg="http://www.w3.org/2000/svg"
   xmlns="http://www.w3.org/2000/svg"
   xmlns:xlink="http://www.w3.org/1999/xlink"
   xmlns:sodipodi="http://sodipodi.sourceforge.net/DTD/sodipodi-0.dtd"
   xmlns:inkscape="http://www.inkscape.org/namespaces/inkscape"
   width="3072"
   height="1536"
   viewBox="0 0 3072 1536"
   id="svg3336"
   version="1.1"
   inkscape:version="0.91 r13725"
   sodipodi:docname="three-betas.svg">
  <defs
     id="defs3338" />
  <sodipodi:namedview
     id="base"
     pagecolor="#ffffff"
     bordercolor="#666666"
     borderopacity="1.0"
     showgrid="false"
     inkscape:object-nodes="true"
     inkscape:snap-grids="true"
     inkscape:object-paths="false"
     inkscape:snap-intersection-paths="false"
     inkscape:snap-page="false"
     inkscape:zoom="0.26"
     inkscape:cx="1466.4975"
     inkscape:cy="516.36237"
     inkscape:window-width="1181"
     inkscape:window-height="753"
     inkscape:window-x="0"
     inkscape:window-y="0"
     inkscape:window-maximized="0"
     inkscape:current-layer="layer3">
    <inkscape:grid
       type="xygrid"
       id="grid4174" />
  </sodipodi:namedview>
  <metadata
     id="metadata3341">
    <rdf:RDF>
      <cc:Work
         rdf:about="http://www.freeman.blue/pages/images/large/three-betas.svg">
        <dc:format>image/svg+xml</dc:format>
        <dc:type
           rdf:resource="http://purl.org/dc/dcmitype/StillImage" />
        <dc:title>Three betas</dc:title>
        <dc:creator>
          <cc:Agent>
            <dc:title>M.J. Freeman</dc:title>
          </cc:Agent>
        </dc:creator>
        <dc:source>www.freeman.blue</dc:source>
        <cc:license
           rdf:resource="http://creativecommons.org/licenses/by-nc/3.0/" />
      </cc:Work>
      <cc:License
         rdf:about="http://creativecommons.org/licenses/by-nc/3.0/">
        <cc:permits
           rdf:resource="http://creativecommons.org/ns#Reproduction" />
        <cc:permits
           rdf:resource="http://creativecommons.org/ns#Distribution" />
        <cc:requires
           rdf:resource="http://creativecommons.org/ns#Notice" />
        <cc:requires
           rdf:resource="http://creativecommons.org/ns#Attribution" />
        <cc:prohibits
           rdf:resource="http://creativecommons.org/ns#CommercialUse" />
        <cc:permits
           rdf:resource="http://creativecommons.org/ns#DerivativeWorks" />
      </cc:License>
    </rdf:RDF>
  </metadata>
  <g
     inkscape:groupmode="layer"
     id="layer3"
     inkscape:label="Shade"
     style="display:inline">
    <path
       style="fill:#c0c0c0;fill-opacity:1;fill-rule:evenodd;stroke:none;stroke-width:1px;stroke-linecap:butt;stroke-linejoin:miter;stroke-opacity:1"
       d="m 2484,276 12,0 0,576 -99.5608,0 C 2364,828 2322,804 2292,786 c -66,-42 -126,-66 -126,-114 0,-48 60,-72 126,-114 156,-90 192,-132 192,-282 z"
       id="path4339"
       inkscape:connector-curvature="0"
       sodipodi:nodetypes="cccccccc" />
    <path
       sodipodi:nodetypes="cccccc"
       inkscape:connector-curvature="0"
       id="path4349"
       d="m 576,852 c -18,0 -306,0 -330,0 0,-42 36,-60 114,-108 156,-90 204,-126 204,-288 l 12,0 z"
       style="display:inline;fill:#c0c0c0;fill-opacity:1;fill-rule:evenodd;stroke:none;stroke-width:1px;stroke-linecap:butt;stroke-linejoin:miter;stroke-opacity:1" />
    <path
       sodipodi:nodetypes="ccccccc"
       inkscape:connector-curvature="0"
       id="use4227"
       d="m 1536,852 -202.3072,0 C 1289.1917,828 1206,785 1206,737 c 0,-42 36,-60 114,-108 156,-90 204,-126 204,-288 l 12,0 z"
       style="display:inline;fill:#c0c0c0;fill-opacity:1;fill-rule:evenodd;stroke:none;stroke-width:1px;stroke-linecap:butt;stroke-linejoin:miter;stroke-opacity:1" />
    <path
       style="display:inline;fill:#efefef;fill-opacity:0.9372549;fill-rule:evenodd;stroke:none;stroke-width:3;stroke-linecap:butt;stroke-linejoin:miter;stroke-miterlimit:4;stroke-dasharray:none;stroke-opacity:1"
       d="M 564,1248 C 564,1074 504,1044 372,966 306,924 246,900 246,852 c 54,0 258,0 330,0 0,144 0,300 0,396 z"
       id="use4180"
       inkscape:connector-curvature="0"
       sodipodi:nodetypes="cccccc" />
    <path
       sodipodi:nodetypes="ccccc"
       inkscape:connector-curvature="0"
       id="use4185"
       d="m 1524.012,1134 c 0,-174 -60,-204 -192,-282 35.988,0 179.988,0 203.988,0 l 0.012,282 z"
       style="display:inline;fill:#efefef;fill-opacity:0.9372549;fill-rule:evenodd;stroke:none;stroke-width:3;stroke-linecap:butt;stroke-linejoin:miter;stroke-miterlimit:4;stroke-dasharray:none;stroke-opacity:1" />
    <path
       sodipodi:nodetypes="ccccc"
       inkscape:connector-curvature="0"
       id="use4189"
       d="m 2484,1068 c 0,-168 -67.9424,-199.65754 -87.5608,-216 l 99.5608,0 0,216 z"
       style="display:inline;fill:#efefef;fill-opacity:1;fill-rule:evenodd;stroke:none;stroke-width:3;stroke-linecap:butt;stroke-linejoin:miter;stroke-miterlimit:4;stroke-dasharray:none;stroke-opacity:1" />
  </g>
  <g
     inkscape:label="Main"
     inkscape:groupmode="layer"
     id="layer1"
     style="display:inline;opacity:1">
    <use
       x="0"
       y="0"
       xlink:href="#use3467"
       id="use3469"
       transform="translate(-1920,0)"
       width="100%"
       height="100%" />
    <use
       x="0"
       y="0"
       xlink:href="#use4233"
       id="use3467"
       transform="translate(960,0)"
       width="100%"
       height="100%" />
    <use
       x="0"
       y="0"
       xlink:href="#use3463"
       id="use3465"
       transform="translate(960,0)"
       width="100%"
       height="100%" />
    <use
       x="0"
       y="0"
       xlink:href="#path3346"
       id="use3463"
       transform="translate(960,0)"
       width="100%"
       height="100%" />
    <use
       x="0"
       y="0"
       xlink:href="#path4803"
       id="use3461"
       transform="translate(1920,0)"
       width="100%"
       height="100%" />
    <use
       x="0"
       y="0"
       xlink:href="#path4803"
       id="use3459"
       transform="translate(960,0)"
       width="100%"
       height="100%" />
    <path
       style="display:inline;fill:none;fill-rule:evenodd;stroke:#000000;stroke-width:3;stroke-linecap:butt;stroke-linejoin:miter;stroke-miterlimit:4;stroke-dasharray:none;stroke-opacity:1"
       d="M 588,1248 C 588,1074 648,1044 780,966 846,924 906,900 906,852 906,804 846,780 780,738 654,660 588,636 588,456"
       id="path4215"
       inkscape:connector-curvature="0"
       sodipodi:nodetypes="ccccc" />
    <path
       sodipodi:nodetypes="ccccc"
       inkscape:connector-curvature="0"
       id="path4156"
       d="M 564,1248 C 564,1074 504,1044 372,966 306,924 246,900 246,852 246,804 306,780 372,738 498,660 564,636 564,456"
       style="display:inline;fill:none;fill-rule:evenodd;stroke:#000000;stroke-width:3;stroke-linecap:butt;stroke-linejoin:miter;stroke-miterlimit:4;stroke-dasharray:none;stroke-opacity:1" />
    <path
       style="display:inline;fill:none;fill-rule:evenodd;stroke:#000000;stroke-width:2;stroke-linecap:butt;stroke-linejoin:miter;stroke-miterlimit:4;stroke-dasharray:8, 8;stroke-dashoffset:0;stroke-opacity:1"
       d="M 332.50114,852 576,852"
       id="path4162"
       inkscape:connector-curvature="0"
       sodipodi:nodetypes="cc" />
    <path
       style="display:inline;fill:none;fill-rule:evenodd;stroke:#000000;stroke-width:2;stroke-linecap:butt;stroke-linejoin:miter;stroke-miterlimit:4;stroke-dasharray:none;stroke-opacity:1"
       d="m 222,852 354,0"
       id="path4166"
       inkscape:connector-curvature="0" />
    <path
       style="fill:none;fill-rule:evenodd;stroke:#000000;stroke-width:4;stroke-linecap:butt;stroke-linejoin:miter;stroke-miterlimit:4;stroke-dasharray:none;stroke-opacity:1"
       d="m 984,1032 -816,0"
       id="path3346"
       inkscape:connector-curvature="0"
       sodipodi:nodetypes="cc" />
    <path
       sodipodi:nodetypes="cc"
       inkscape:connector-curvature="0"
       id="use4233"
       d="m 1890,852 -354,0"
       style="display:inline;fill:none;fill-rule:evenodd;stroke:#000000;stroke-width:2;stroke-linecap:butt;stroke-linejoin:miter;stroke-miterlimit:4;stroke-dasharray:none;stroke-dashoffset:0;stroke-opacity:1" />
    <path
       sodipodi:nodetypes="cc"
       inkscape:connector-curvature="0"
       id="use4235"
       d="M 1333.6928,852 1536,852"
       style="display:inline;fill:none;fill-rule:evenodd;stroke:#000000;stroke-width:2;stroke-linecap:butt;stroke-linejoin:miter;stroke-miterlimit:4;stroke-dasharray:8, 8;stroke-dashoffset:0;stroke-opacity:1" />
    <path
       inkscape:connector-curvature="0"
       id="use4237"
       d="m 1182,738 354,0"
       style="display:inline;fill:none;fill-rule:evenodd;stroke:#000000;stroke-width:2;stroke-linecap:butt;stroke-linejoin:miter;stroke-miterlimit:4;stroke-dasharray:none;stroke-opacity:1" />
    <path
       style="display:inline;fill:none;fill-rule:evenodd;stroke:#000000;stroke-width:2;stroke-linecap:butt;stroke-linejoin:miter;stroke-miterlimit:4;stroke-dasharray:8, 8;stroke-dashoffset:0;stroke-opacity:1"
       d="M 2396.4392,852 2496,852"
       id="use4291"
       inkscape:connector-curvature="0"
       sodipodi:nodetypes="cc" />
    <path
       style="display:inline;fill:none;fill-rule:evenodd;stroke:#000000;stroke-width:2;stroke-linecap:butt;stroke-linejoin:miter;stroke-miterlimit:4;stroke-dasharray:none;stroke-opacity:1"
       d="m 2142,672 354,0"
       id="use4293"
       inkscape:connector-curvature="0" />
    <path
       style="display:inline;fill:none;fill-rule:evenodd;stroke:#000000;stroke-width:4;stroke-linecap:butt;stroke-linejoin:miter;stroke-miterlimit:4;stroke-dasharray:none;stroke-opacity:1"
       d="M 576,1320 576,264"
       id="path4803"
       inkscape:connector-curvature="0"
       sodipodi:nodetypes="cc" />
    <use
       x="0"
       y="0"
       xlink:href="#path4156"
       id="use3583"
       transform="translate(960,-114)"
       width="100%"
       height="100%" />
    <use
       x="0"
       y="0"
       xlink:href="#path4156"
       id="use3585"
       transform="translate(1920,-180)"
       width="100%"
       height="100%" />
    <use
       x="0"
       y="0"
       xlink:href="#path4215"
       id="use3455"
       transform="translate(960,0)"
       width="100%"
       height="100%" />
    <use
       x="0"
       y="0"
       xlink:href="#use3455"
       id="use3457"
       transform="translate(960,0)"
       width="100%"
       height="100%" />
  </g>
  <g
     inkscape:groupmode="layer"
     id="layer2"
     inkscape:label="Text"
     style="display:inline">
    <text
       xml:space="preserve"
       style="font-style:normal;font-variant:normal;font-weight:normal;font-stretch:normal;font-size:70px;line-height:125%;font-family:sans-serif;-inkscape-font-specification:'sans-serif, Normal';text-align:start;letter-spacing:0px;word-spacing:0px;writing-mode:lr-tb;text-anchor:start;display:inline;fill:#000000;fill-opacity:1;stroke:none;stroke-width:1px;stroke-linecap:butt;stroke-linejoin:miter;stroke-opacity:1"
       x="188.38672"
       y="1110.99"
       id="text4197"
       sodipodi:linespacing="125%"><tspan
         sodipodi:role="line"
         id="tspan4201"
         x="188.38672"
         y="1110.99">β = 0.50</tspan></text>
    <text
       sodipodi:linespacing="125%"
       id="use4203"
       y="1110.99"
       x="1146.1133"
       style="font-style:normal;font-variant:normal;font-weight:normal;font-stretch:normal;font-size:70px;line-height:125%;font-family:sans-serif;-inkscape-font-specification:'sans-serif, Normal';text-align:start;letter-spacing:0px;word-spacing:0px;writing-mode:lr-tb;text-anchor:start;display:inline;fill:#000000;fill-opacity:1;stroke:none;stroke-width:1px;stroke-linecap:butt;stroke-linejoin:miter;stroke-opacity:1"
       xml:space="preserve"><tspan
         sodipodi:role="line"
         id="tspan4223"
         x="1146.1133"
         y="1110.99">β = 0.16</tspan></text>
    <text
       xml:space="preserve"
       style="font-style:normal;font-variant:normal;font-weight:normal;font-stretch:normal;font-size:70px;line-height:125%;font-family:sans-serif;-inkscape-font-specification:'sans-serif, Normal';text-align:start;letter-spacing:0px;word-spacing:0px;writing-mode:lr-tb;text-anchor:start;display:inline;fill:#000000;fill-opacity:1;stroke:none;stroke-width:1px;stroke-linecap:butt;stroke-linejoin:miter;stroke-opacity:1"
       x="2109.9011"
       y="1109.34"
       id="use4215"
       sodipodi:linespacing="125%"><tspan
         sodipodi:role="line"
         id="tspan4221"
         x="2109.9011"
         y="1109.34">β = 0.05</tspan></text>
    <text
       sodipodi:linespacing="125%"
       id="use4226"
       y="531.59003"
       x="2109.27"
       style="font-style:normal;font-variant:normal;font-weight:normal;font-stretch:normal;font-size:70px;line-height:125%;font-family:sans-serif;-inkscape-font-specification:'sans-serif, Normal';text-align:start;letter-spacing:0px;word-spacing:0px;writing-mode:lr-tb;text-anchor:start;display:inline;fill:#000000;fill-opacity:1;stroke:none;stroke-width:1px;stroke-linecap:butt;stroke-linejoin:miter;stroke-opacity:1"
       xml:space="preserve"><tspan
         sodipodi:role="line"
         id="tspan4232"
         x="2109.27"
         y="531.59003">95%</tspan></text>
    <text
       xml:space="preserve"
       style="font-style:normal;font-variant:normal;font-weight:normal;font-stretch:normal;font-size:70px;line-height:125%;font-family:sans-serif;-inkscape-font-specification:'sans-serif, Normal';text-align:start;letter-spacing:0px;word-spacing:0px;writing-mode:lr-tb;text-anchor:start;display:inline;fill:#000000;fill-opacity:1;stroke:none;stroke-width:1px;stroke-linecap:butt;stroke-linejoin:miter;stroke-opacity:1"
       x="1149.13"
       y="531.59003"
       id="use4240"
       sodipodi:linespacing="125%"><tspan
         sodipodi:role="line"
         id="tspan4246"
         x="1149.13"
         y="531.59003">84%</tspan></text>
    <text
       sodipodi:linespacing="125%"
       id="use4248"
       y="526.46002"
       x="189.27"
       style="font-style:normal;font-variant:normal;font-weight:normal;font-stretch:normal;font-size:70px;line-height:125%;font-family:sans-serif;-inkscape-font-specification:'sans-serif, Normal';text-align:start;letter-spacing:0px;word-spacing:0px;writing-mode:lr-tb;text-anchor:start;display:inline;fill:#000000;fill-opacity:1;stroke:none;stroke-width:1px;stroke-linecap:butt;stroke-linejoin:miter;stroke-opacity:1"
       xml:space="preserve"><tspan
         sodipodi:role="line"
         id="tspan4256"
         x="189.27"
         y="526.46002">50%</tspan></text>
  </g>
</svg>
